X: 98
T:Kate Dalrymple
M:C|
L:1/8
Q:1/2=104
K:D
% D major/mixolydian hexatonic
D2DF E2EF|D2DF E2EF|D2d2 BAGF|E2A2 F2D2:|
A3B  AGFG|A2d2 A2F2|A2d2 A2d2|A2d2 A2F2 |
G2GB F2FA|E2EG AGFE|D2d2 BAGF|EFGA F2D2|]

